X: 60
T:Musical Priest, The******
M:C|
L:1/8
R:reel
D:Matt Molloy: Stony Steps.
Z:id:hn-reel-44
K:Bm
FBBA BcdB|cBAf ecBA|FBBA BcdB|1 cBAc ~B3A:|2 cBAc ~B3c||
|:d2dc dfed|(3cBA eA fAeA|dcBc defb|afec ~B3c:|
|:dB~B2 bafb|afec ABce|dB~B2 bafb|1 afec ~B3c:|2 afec ~B3A||
"Variations:"
FBBA ~B3d|cBAc ecBA|FBBA ~B3d|cBAc ~B3A||
FBBF GBdB|cBAc ecBA|FBBF GBdB|cBAc ~B3c||
d2dc dfed|(3cBA eA fAeA|d2dc defg|afec dBBc||
d2dc dfed|(3cBA eA fAeA|d2dc dfaf|ecAB dBBc||
bB~B2 bB~B2|cBAc ecBA|bB~B2 bBBb|c'bac' ~b3z||
bB~B2 bB~B2|cBAc eABc|d2dc defg|afec dBBA||

